!!!!SEGMENT: pl-cz--i-155--007_anonim-menuetto.krn
!!!id: 18xx:2516
!!!COM: Anonim
!!!OTL: Menuetto
!!!PDT:
!!!SMS-siglum: PL-CZ
!!!SMS-shelfmark: I-155
!!!NIFC-rismID: 1001012516
!!!URL-scan: http://repozytorium.nifc.pl/skany/pl-cz-nut--i-155
!!!ONB-nifc: UWAGA: m.in. skan 0014, str. 13. Uwaga: 5 partii
!!!SMS-variant:
!!!SMS-altvar:
**kern	**kern	**kern	**kern	**kern
*part5	*part4	*part3	*part2	*part1
*staff5	*staff4	*staff3	*staff2	*staff1
*I"[Corno Secondo]	*I"[Corno Primo.]	*I"[Fagotto]	*I"[Clarinetto Secondo]	*I"[Clarinetto Primo]
*I'cor 2	*I'cor 1	*I'fag	*I'cl 2	*I'cl 1
*clefG2	*clefG2	*clefF4	*clefG2	*clefG2
*k[]	*k[]	*k[]	*k[]	*k[]
*M3/4	*M3/4	*M3/4	*M3/4	*M3/4
*>[A,A,B,B,C,C,D,D,A,A,B,B]	*>[A,A,B,B,C,C,D,D,A,A,B,B]	*>[A,A,B,B,C,C,D,D,A,A,B,B]	*>[A,A,B,B,C,C,D,D,A,A,B,B]	*>[A,A,B,B,C,C,D,D,A,A,B,B]
*>A	*>A	*>A	*>A	*>A
!LO:TX:t=P:problem:cor 1 i cor 2 zapisane razem na skanie 0052	!	!LO:TX:a:t=No. 8.	!LO:TX:a:t=No. 8.	!LO:TX:a:t=No&colon; 8.
4r	4ryy	4r	4r	8g/L
.	.	.	.	8g/J
=1	=1	=1	=1	=1
*^	*	*	*	*
4cc/	4e\	2.ryy	8E\L	8e/L	2g/
.	.	.	8C\	8g/	.
4cc/	4e\	.	8E\	8e/	.
.	.	.	8C\	8g/	.
4cc/	4e\	.	8E\	8e/	16dd\LL
.	.	.	.	.	16cc\
.	.	.	8C\J	8g/J	16b\
.	.	.	.	.	16cc\JJ
=2	=2	=2	=2	=2	=2
*	*	*	*	*tremolo	*
4cc/	4e\	2.ryy	8E\L	8e/L	4ee\
.	.	.	8C\	8g/	.
4cc/	4e\	.	8E\	8e/	4cc\
.	.	.	8C\	8g/	.
4cc/	4e\	.	8E\	8e/	8g\L
.	.	.	8C\J	8g/J	8g\J
=3	=3	=3	=3	=3	=3
*	*	*	*	*	*2\right
4dd/	4g\	2.ryy	8BB/L	8f/L	2g\
.	.	.	8GG/	8g/	.
4dd/	4g\	.	8BB/	8f/	.
.	.	.	8GG/	8g/	.
4dd/	4g\	.	8BB/	8f/	16ee\LL
.	.	.	.	.	16cc\
.	.	.	8GG/J	8g/J	16a\
.	.	.	.	.	16dd\JJ
=4	=4	=4	=4	=4	=4
*	*	*	*tremolo	*	*
4dd/	4g\	2.ryy	8BB/L	8f/L	4ff\
.	.	.	8GG/	8g/	.
4dd/	4g\	.	8BB/	8f/	4dd\
.	.	.	8GG/	8g/	.
4dd/	4g\	.	8BB/	8f/	8b\L
.	.	.	8GG/J	8g/J	8g\J
*	*	*	*Xtremolo	*Xtremolo	*
=5	=5	=5	=5	=5	=5
4cc/	4c\	2.ryy	4C/	4cc\	4gg\
4cc/	4c\	.	4c\	4ee\	4gg\
4cc/	4c\	.	4B-X\	4b-X\	4gg\
!	!	!	!	!	!LO:LB:g=original
=6	=6	=6	=6	=6	=6
4cc/	4c\	2.ryy	4F\	4ff\	8gg\L
.	.	.	.	.	8aa\
4cc/	4c\	.	4FF/	4ff\	8aa\
.	.	.	.	.	8ff\
4r	4ryy	.	4r	4r	8ff\
.	.	.	.	.	8dd\J
=7	=7	=7	=7	=7	=7
*	*	*	*	*tremolo	*
4r	4ryy	2.ryy	4C\	(8e/L	4.gg\
.	.	.	.	8g/	.
4cc/	4e\	.	4E\	8e/	.
!	!	!	!	!	!LO:N:vis=32
.	.	.	.	8g/J)	16aa\LL
*	*	*	*	*Xtremolo	*
!	!	!	!	!	!LO:N:vis=32
.	.	.	.	.	16gg\
4dd/	4g\	.	4G\	(8f/L	16gg\
.	.	.	.	.	16ee\
.	.	.	.	8g/J)	16ff\
.	.	.	.	.	16dd\JJ
=8	=8	=8	=8	=8	=8
!	!	!	!	!LO:N:vis=8	!
4dd/	4g\	2ryy	4C/	4f/	4dd\
4cc/	4e\	.	4CC/	4e/	4cc\
!	!	!	!	!	!LO:TX:t=P:problem:błąd metryczny: pauza 4r
4ryy	4ryy	4ryy	4ryy	4ryy	4r
!	!	!	!LO:LB:g=original	!LO:LB:g=original	!
=:!|:	=:!|:	=:!|:	=:!|:	=:!|:	=:!|:
*>B	*>B	*>B	*>B	*>B	*>B
4r	4ryy	4ryy	4r	4r	16aa\LL
.	.	.	.	.	16gg\
.	.	.	.	.	16aa\
.	.	.	.	.	16gg\JJ
=9	=9	=9	=9	=9	=9
4dd/	4g\	2.ryy	4GG/	4g/	4b\
4dd/	4g\	.	4G\	4g/	4b\
4r	4ryy	.	4r	4r	16aa\LL
.	.	.	.	.	16gg\
.	.	.	.	.	16aa\
.	.	.	.	.	16gg\JJ
!LO:LB:g=original	!LO:LB:g=original	!	!	!	!
=10	=10	=10	=10	=10	=10
4cc/	4e\	2.ryy	4C/	4e/	4cc\
4cc/	4e\	.	4c\	4e/	4cc\
4r	4ryy	.	4r	4r	16aa\LL
.	.	.	.	.	16gg\
.	.	.	.	.	16aa\
.	.	.	.	.	16gg\JJ
=11	=11	=11	=11	=11	=11
4r	4ryy	2.ryy	4GG/	4dd\	8gg\L
.	.	.	.	.	8ff\J
4dd/	4g\	.	4BB/	4dd\	4ff\
4cc/	4e\	.	(<16C/LL	(>16cc\LL	16ee\LL
.	.	.	16D/	16dd\	16ff\
.	.	.	16E/	16dd#\	16ff#\
!	!	!	!LO:SIC:v:s=16F#/JJ)	!	!
.	.	.	16F/JJ)	16ee\JJ)	16gg\JJ
!	!	!	!	!	!LO:LB:g=original
=12	=12	=12	=12	=12	=12
4cc/	4e\	2.ryy	4G\	4cc\	4ee\
4dd/	4g\	.	4GG/	4b\	4dd\
4r	4ryy	.	(>16G\LL	4r	8gg\L
.	.	.	16F\	.	.
.	.	.	16E\	.	8ee\J
.	.	.	16D\JJ)	.	.
=13	=13	=13	=13	=13	=13
4cc/	4c\	2.ryy	4C/	4cc\	4ccc\
4cc/	4c\	.	4c\	4ee\	4ccc\
4cc/	4c\	.	4C/	4ee\	4ccc\
=14	=14	=14	=14	=14	=14
4cc/	4c\	2.ryy	4FF/	8ee\L	8ccc\L
.	.	.	.	8ff\J	8aa\
4cc/	4c\	.	4F\	4ff\	8aa\
.	.	.	.	.	8ff\
4r	4ryy	.	4FF/	4r	8ff\
.	.	.	.	.	8dd\J
=15	=15	=15	=15	=15	=15
4r	4ryy	2.ryy	4C\	4ee\	4.gg\
4cc/	4e\	.	4E\	4cc\	.
!	!	!	!	!	!LO:N:vis=32
.	.	.	.	.	16aa\LL
!	!	!	!	!	!LO:N:vis=32
.	.	.	.	.	16gg\JJ
!	!	!	!LO:TX:t=P:problem:mixed beam	!	!
4dd/	4g\	.	8G\L	8f/L	16ff\LL
.	.	.	.	.	16ee\
.	.	.	8GG/J	8g/J	16ff\
.	.	.	.	.	16dd\JJ
=	=	=	=	=	=
4dd/	4g\	2ryy	4C/	4f/	4dd\
!	!	!	!	!	!LO:N:vis=4.
4cc/	4e\	.	4CC/	4e/	4cc\
!LO:TX:t=P:problem:błąd metryczny: pauza 4r	!	!	!	!	!LO:TX:t=P:problem:błąd metryczny: pauza 4r
4r	4ryy	4ryy	4ryy	4ryy	4r
!	!	!	!LO:LB:g=original	!LO:LB:g=original	!LO:LB:g=original
=16||	=16||	=16:|!	=16:|!	=16:|!	=16:|!
*M3/4	*M3/4	*M3/4	*M3/4	*M3/4	*M3/4
*>C	*>C	*>C	*>C	*>C	*>C
!LO:TX:a:i:t=Trio	!	!	!LO:TX:a:t=Trio	!LO:TX:a:t=Trio.	!LO:TX:a:t=Trio
4r	4ryy	4ryy	4r	8e/L	8cc\L
.	.	.	.	8g/J	8dd\J
=17	=17	=17	=17	=17	=17
*	*2\right	*	*	*2\right	*
2cc/	2e\	2.ryy	4CC/	2cc\	2ee\
.	.	.	4C/	.	.
4r	4ryy	.	4C/	8dd\L	8ff\L
.	.	.	.	8cc\J	8ee\J
=18	=18	=18	=18	=18	=18
*	*	*	*rep	*	*
4cc/	4e\	2.ryy	4CC/	(>8ff\L	8aa\L
.	.	.	.	8ee\J)	8gg\J
4cc/	4e\	.	4C/	4ee\	4gg\
4r	4ryy	.	4C/	8dd\L	8ff\L
.	.	.	.	8cc\J	8ee\J
*	*	*	*Xrep	*	*
=19	=19	=19	=19	=19	=19
4cc/	4c\	2.ryy	4FF/	(>8ff\L	8aa\L
.	.	.	.	8ee\	8gg\
4cc/	4c\	.	4F\	8ff\	8aa\
.	.	.	.	8ee\	8gg\
4cc/	4c\	.	4F#X\	8dd\	8ff\
.	.	.	.	8cc\J)	8ee\J
!LO:LB:g=original	!LO:LB:g=original	!	!	!	!
=20	=20	=20	=20	=20	=20
4dd/	4g\	2.ryy	4G\	4cc\	4ee\
4dd/	4g\	.	4GG/	4b\	4dd\
4r	4ryy	.	4G\	4g/	4dd\
=21	=21	=21	=21	=21	=21
2dd/	2g\	2.ryy	2GG/	2b\	2dd\
4r	4ryy	.	4G\	4cc\	4ee\
=22	=22	=22	=22	=22	=22
4dd/	4g\	2.ryy	4GG/	8ee\L	8gg\L
.	.	.	.	8dd\J	8ff\J
4dd/	4g\	.	4BB/	4dd\	4ff\
4r	4ryy	.	4GG/	8cc\L	8ee\L
.	.	.	.	8b\J	8dd\J
=23	=23	=23	=23	=23	=23
!	!	!	!	!LO:TX:t=P:problem:mixed beam	!
4r	4ryy	2.ryy	4C\	8ff\L	8aa\L
.	.	.	.	8ee\	8gg\
4cc/	4e\	.	4E\	8ee\	8gg\
.	.	.	.	8cc\	8ee\
4dd/	4g\	.	4G\	8dd\	8ff\
.	.	.	.	8g/J	8dd\J
!	!	!	!	!	!LO:LB:g=original
=24	=24	=24	=24	=24	=24
4dd/	4g\	2.ryy	4C/	4g/	4dd\
!	!	!	!	!LO:SIC:v:s=4e/	!
4cc/	4e\	.	4CC/	4f/	4cc\
!	!	!	!	!	!LO:TX:t=P:problem:błąd metryczny: pauza 4r
4ryy	4ryy	.	4ryy	4ryy	4r
!	!	!	!	!LO:LB:g=original	!
=:!|:	=:!|:	=:!|:	=:!|:	=:!|:	=:!|:
*>D	*>D	*>D	*>D	*>D	*>D
4r	4ryy	4ryy	4r	4r	8gg\L
.	.	.	.	.	8ff#\J
=25	=25	=25	=25	=25	=25
!LO:TX:t=4.	!	!	!	!	!
!LO:N:vis=00r	!	!	!	!	!
2.r	2.ryy	2.ryy	4D\	8cc\L	8ee'\L
.	.	.	.	8dd\	8dd'\
.	.	.	4d\	8cc\	8dd'\
.	.	.	.	8dd\	8dd'\
.	.	.	4d\	8cc\	8dd'\
.	.	.	.	8dd\J	8dd'\J
!	!	!	!LO:LB:g=original	!	!
=26	=26	=26	=26	=26	=26
*	*	*	*	*tremolo	*
2.r	2.ryy	2.ryy	4D\	8cc\L	2dd\
.	.	.	.	8dd\	.
.	.	.	4d\	8cc\	.
.	.	.	.	8dd\	.
.	.	.	4d\	8cc\	8dd\L
.	.	.	.	8dd\J	8ee\J
=27	=27	=27	=27	=27	=27
2.r	2.ryy	2.ryy	4D\	8cc\L	8ff#\L
.	.	.	.	8dd\	8gg\
.	.	.	4d\	8cc\	8aa\
.	.	.	.	8dd\	8bb\
.	.	.	4d\	8cc\	8ccc\
.	.	.	.	8dd\J	8aa\J
*	*	*	*	*Xtremolo	*
=28	=28	=28	=28	=28	=28
2.r	2.ryy	2.ryy	4G\	4b\	4gg\
.	.	.	4GG/	4r	4r
.	.	.	4r	4b\	4dd\
=29	=29	=29	=29	=29	=29
2dd/	2g\	2.ryy	4GG/	2b\	2dd\
.	.	.	4G\	.	.
4cc/	4e\	.	4C/	4cc\	4ee\
=30	=30	=30	=30	=30	=30
4dd/	4g\	2.ryy	4BB/	(>8ee\L	8gg\L
.	.	.	.	8dd\J)	8ff\J
4dd/	4g\	.	4GG/	4dd|\	4ff\
4dd/	4g\	.	4BB/	(>8cc\L	8ee\L
.	.	.	.	8b\J)	8ee\J
!	!	!	!	!	!LO:LB:g=original
=31	=31	=31	=31	=31	=31
!	!	!	!	!LO:TX:t=P:problem:mixed beam	!
4r	4ryy	2.ryy	4C\	8ff\L	8aa\L
.	.	.	.	8ee\	8gg\
4cc/	4e\	.	4E\	8ee\	8gg\
.	.	.	.	8cc\	8ee\
4dd/	4g\	.	4G\	8dd\	8ff\
.	.	.	.	8g/J	8dd\J
=32	=32	=32	=32	=32	=32
4dd/	4g\	2ryy	4C/	4g/	4dd\
!	!	!	!	!	!LO:TX:a:t=Da Capo
4cc/	4e\	.	4CC/	4e/	4cc\
!	!	!	!	!	!LO:TX:t=P:problem:błąd metryczny: pauza 4r
4cc/	4e\	4ryy	4ryy	4ryy	4r
*v	*v	*	*	*	*
!LO:PB:g=original	!	!LO:PB:g=original	!LO:PB:g=original	!LO:PB:g=original
==	==	==-	==	==
*-	*-	*-	*-	*-
!!!system-decoration: [(s1,s2,s3)][(s4,s5)]
!!!RDF**kern: < = below
!!!RDF**kern: > = above
!!!RDF**kern: | = vertical stroke
!!!ENC: Krzysztof Stępień
!!!END: 2021-06-16
!!!ENC: Marta Chmielewska
!!!END: 2021-06-21
